X: 60
T:Rondeau (5)
A:Gascogne
O:France
C:Trad.
R:Rondeau
Z:Transcrit et/ou corrig par Michel BELLON - 2005-03-08
Z:Pour toute observation mailto:galouvielle@free.fr
M:6/8
L:1/8
Q:3/8=110
K:Cmaj
"C"c2e g2e | "F"fef gag | "C"c2e g2e | "F"fef "C"g3 |\
"C"c2e g2e | "F"fef gag | "C"c2e g2e | "F"fef "C"g3||
"F"d2f "C"e2c | "G"ded "C"cBc | "F"d2f "C"e2c | "G"ded "C"c3 |\ 
"F"d2f "C"e2c | "G"ded "C"cBc | "F"d2f "C"e2c | "G"ded "C"c3 |]
